X: 13200
T: Fish & Dolphin
R: jig
M: 6/8
K: Bminor
|:B2f fed|cde ABc|d2B fBb|afg fdc|
B2f fed|cde ABc|dcd efg|1 fdc B2A:|2 fdc B2c||
|:d2c def|~A3 a2g|~f3 fed|cde ABc|
Bcd cde|def efa|bfb afg|1 fdc B2c:|2 fdc B2A||

